X: 107
T: The Parting Glass   [Dm]
M: C
N: This is a very traditional Irish song for singing at the end of an
N: evening, a gathering or an event. Probably the only song more common
N: as a wrap-up is the Soldier's Song, the national anthem of Ireland.
S: Seymour Shlien (Ottawa Slow Jam) 2013
O: trad. Irish, Scottish, early 1600s
%Q: 1/4=90
K: Dm
(AG) | "Dm"F2D2 D2(CD) | F2 F2"C"G2 (FG) |\
[1 "Dm"A2A2 (AG)(FG) | A2C2 "C"C2 :|\
[2 "Dm"A2d2 "C"(cA)(GA) | "Dm"F2D2 D2 |]
 A2  | "F"(cA)(cd) c2A2 | (cA)(cd) c2A2 |\
       "Gm"B2A2 G2(FG) | "F"A2C2 C2 ||
(AG) | "Dm"F2D2 D2(CD) | F2F2 "C"G2(FG) |\
      "Dm"A2d2 "C"(cA)(GA) | "Dm"F2D2 D2 |]
% - - - - - - - - - -
